X:7757
T:Union Reel, The
O:england
R:reel
D:Mary Bergin: Feadoga Stain
M:C|
K:A
e2 (3cBA eAcA|eAcA Bcdf|1 e2 (3cBA eAcA|(3Bcd cA BAFA:|2 ~e3c dcBA|FABc d3A||
K:D
|:df~f2 dfef|df~f2 afef|df~f2 dfec|1 dcBA FABc:|2 dcBA Bcdf||
K:A
"variations"
eA (3cBA eAcA|e2cA Bcdf|1 eA (3cBA eAcA|Bcdc BAFA:|2 ~e3c dcBA|FABc dABc||
K:D
|:df~f2 d2ec|df~f2 afec|df~f2 dfec|1 dcBA FABc:|2 dcBA FAdf||


